img/hop/hop.svg

<svg fill="none" height="500" viewBox="0 0 800 500" width="800" xmlns="http://www.w3.org/2000/svg"><path d="m0 0h800v500h-800z" fill="#1f1a27"/><path clip-rule="evenodd" d="m337.5 213c-4.388 0-8.588.762-12.5 2.137v-27.137h-25v100h25v-37.5c0-6.9 5.6-12.5 12.5-12.5s12.5 5.6 12.5 12.5v37.5h25v-9.547c6.634 5.937 15.395 9.547 25 9.547s18.366-3.61 25-9.547v34.547h25v-27.137c3.913 1.387 8.112 2.137 12.5 2.137 20.712 0 37.5-16.788 37.5-37.5s-16.788-37.5-37.5-37.5c-13.044 0-24.532 6.658-31.25 16.762-6.718-10.104-18.206-16.762-31.25-16.762s-24.532 6.658-31.25 16.762c-6.718-10.104-18.206-16.762-31.25-16.762zm62.5 50c-6.9 0-12.5-5.6-12.5-12.5s5.6-12.5 12.5-12.5 12.5 5.6 12.5 12.5-5.6 12.5-12.5 12.5zm50-12.5c0 6.9 5.6 12.5 12.5 12.5s12.5-5.6 12.5-12.5-5.6-12.5-12.5-12.5-12.5 5.6-12.5 12.5z" fill="#fff" fill-rule="evenodd"/></svg>

<svg width="800" height="500" viewBox="0 0 800 500" fill="none" xmlns="http://www.w3.org/2000/svg">
<rect width="800" height="500" fill="#1F1A27"/>
<path fill-rule="evenodd" clip-rule="evenodd" d="M337.5 213C333.112 213 328.912 213.762 325 215.137V188H300V288H325V250.5C325 243.6 330.6 238 337.5 238C344.4 238 350 243.6 350 250.5V288H375V278.453C381.634 284.39 390.395 288 400 288C409.605 288 418.366 284.39 425 278.453V313H450V285.863C453.913 287.25 458.112 288 462.5 288C483.212 288 500 271.212 500 250.5C500 229.788 483.212 213 462.5 213C449.456 213 437.968 219.658 431.25 229.762C424.532 219.658 413.044 213 400 213C386.956 213 375.468 219.658 368.75 229.762C362.032 219.658 350.544 213 337.5 213ZM400 263C393.1 263 387.5 257.4 387.5 250.5C387.5 243.6 393.1 238 400 238C406.9 238 412.5 243.6 412.5 250.5C412.5 257.4 406.9 263 400 263ZM450 250.5C450 257.4 455.6 263 462.5 263C469.4 263 475 257.4 475 250.5C475 243.6 469.4 238 462.5 238C455.6 238 450 243.6 450 250.5Z" fill="white"/>
</svg>
